protocol-expert/img/icons/benefits__card-icon-03.svg

<svg width="22" height="21" viewBox="0 0 22 21" fill="none" xmlns="http://www.w3.org/2000/svg">
<path d="M19.5716 9.84894H13.8574C13.4629 9.84894 13.1431 10.1687 13.1431 10.5632V19.1347C13.1431 19.5291 13.4629 19.8489 13.8574 19.8489H19.5716C19.9661 19.8489 20.2859 19.5291 20.2859 19.1347V10.5632C20.2859 10.1687 19.9661 9.84894 19.5716 9.84894Z" stroke="white" stroke-width="2" stroke-linecap="round" stroke-linejoin="round"/>
<path d="M19.5716 1.27753H13.8574C13.4629 1.27753 13.1431 1.59732 13.1431 1.99181V4.86324C13.1431 5.25773 13.4629 5.57753 13.8574 5.57753H19.5716C19.9661 5.57753 20.2859 5.25773 20.2859 4.86324V1.99181C20.2859 1.59732 19.9661 1.27753 19.5716 1.27753Z" stroke="white" stroke-width="2" stroke-linecap="round" stroke-linejoin="round"/>
<path d="M8.14293 1.27753H2.42864C2.03415 1.27753 1.71436 1.59732 1.71436 1.99181V10.5632C1.71436 10.9577 2.03415 11.2775 2.42864 11.2775H8.14293C8.53742 11.2775 8.85721 10.9577 8.85721 10.5632V1.99181C8.85721 1.59732 8.53742 1.27753 8.14293 1.27753Z" stroke="white" stroke-width="2" stroke-linecap="round" stroke-linejoin="round"/>
<path d="M8.14293 15.549H2.42864C2.03415 15.549 1.71436 15.8687 1.71436 16.2632V19.1347C1.71436 19.5292 2.03415 19.849 2.42864 19.849H8.14293C8.53742 19.849 8.85721 19.5292 8.85721 19.1347V16.2632C8.85721 15.8687 8.53742 15.549 8.14293 15.549Z" stroke="white" stroke-width="2" stroke-linecap="round" stroke-linejoin="round"/>
</svg>

<svg width="22" height="21" fill="none" xmlns="http://www.w3.org/2000/svg"><path d="M19.572 9.849h-5.715a.714.714 0 00-.714.714v8.572c0 .394.32.714.714.714h5.715c.394 0 .714-.32.714-.714v-8.572a.714.714 0 00-.714-.714zm0-8.571h-5.715a.714.714 0 00-.714.714v2.871c0 .395.32.715.714.715h5.715c.394 0 .714-.32.714-.715V1.992a.714.714 0 00-.714-.714zm-11.429 0H2.429a.714.714 0 00-.715.714v8.571c0 .395.32.714.715.714h5.714c.394 0 .714-.32.714-.714V1.992a.714.714 0 00-.714-.714zm0 14.271H2.429a.714.714 0 00-.715.714v2.872c0 .394.32.714.715.714h5.714c.394 0 .714-.32.714-.714v-2.872a.714.714 0 00-.714-.714z" stroke="#fff" stroke-width="2" stroke-linecap="round" stroke-linejoin="round"/></svg>
